X: 1
T: Polska efter Stor-Jonas
D: Mats & Ulf Andersson "L\aatar fr\aan F\"ollingetrakten i J\"amtland"
M: 3/4
L: 1/8
K: D
|: "D"A>F D>F A>d | "Em"B>G E>G B2 | "A7"e>c A>c e>f |1,3 ge/c/ "D"dA/d/ f>d \
                                                    :|2,4 ge/c/ "D"d4 :|
|: "D"A2 d2 ~fe/f/ | "Em"g2 B2 g2 |1,3 (3f"A7"gf (3efe (3ded | "(E)"(3cAc "E7"(3BA^G "A"A2 \
                                 :|2,4 (3f"A7"gf (3efe d<c | (3ABc "D"d4 :|
